img/dn.svg

<svg width="21" height="21" viewBox="0 0 21 21" fill="none" xmlns="http://www.w3.org/2000/svg">
<path d="M12.4024 20.997H10.6152C10.642 20.3115 10.6657 19.626 10.6976 18.9405C10.7205 18.4363 10.7403 17.9308 10.7863 17.4279C10.8348 16.8936 10.9012 16.3601 10.9816 15.829C11.0605 15.2897 11.2029 14.7616 11.406 14.2557C11.9741 12.8554 12.9691 11.8897 14.381 11.3568C15.2056 11.0453 16.0698 10.9157 16.9416 10.8289C17.3086 10.7919 17.6763 10.7651 18.0439 10.7421C18.5456 10.7115 19.0475 10.6857 19.5496 10.6649C19.9593 10.647 20.3691 10.6387 20.7789 10.6253C20.8491 10.6253 20.9193 10.617 20.9978 10.6125V10.7185C20.9933 11.4238 20.9927 12.1297 20.9837 12.835C20.9678 14.0598 20.9282 15.2833 20.7348 16.496C20.6454 17.1292 20.4751 17.7482 20.228 18.338C19.9612 18.9476 19.5898 19.4748 19.0281 19.8526C18.6012 20.1341 18.1334 20.3481 17.6412 20.487C16.8268 20.7277 15.9906 20.84 15.1469 20.8911C14.3752 20.9383 13.601 20.9549 12.8281 20.9817L12.4024 20.997Z" fill="#171717"/>
<path d="M0 10.3833V8.59622C0.00446781 8.48197 0.012127 8.36772 0.0140418 8.25284C0.0306365 7.03376 0.0657407 5.81533 0.247644 4.60711C0.335058 3.97933 0.494173 3.36364 0.72187 2.77212C1.08951 1.84536 1.71628 1.17647 2.63664 0.774368C3.28128 0.494811 3.95656 0.337161 4.64716 0.233763C5.45624 0.117579 6.27186 0.0525608 7.08913 0.0390943C8.16077 0.016117 9.2324 0.0135638 10.304 0.0020752H10.3819C10.3819 0.0512211 10.3819 0.0863253 10.3819 0.122068C10.3557 0.780112 10.3315 1.43816 10.3028 2.0962C10.2836 2.51873 10.2689 2.94253 10.2313 3.36378C10.1847 3.89034 10.1247 4.41627 10.0558 4.94092C9.98441 5.49442 9.85279 6.03847 9.66323 6.56337C9.28474 7.59862 8.65988 8.44495 7.74143 9.06662C7.10636 9.49616 6.40109 9.75594 5.65943 9.92125C5.00396 10.064 4.33875 10.1576 3.66935 10.2014C3.07832 10.2436 2.48665 10.2838 1.89499 10.3125C1.26184 10.3438 0.630599 10.3604 0 10.3833Z" fill="#171717"/>
<path d="M0 12.4009V10.6138C0.434016 10.6304 0.868669 10.645 1.30269 10.6636C1.76925 10.6833 2.23646 10.6961 2.70238 10.7274C3.33639 10.7729 3.96954 10.828 4.60184 10.8927C5.1521 10.9504 5.69559 11.0604 6.22493 11.2214C7.30231 11.5475 8.21311 12.1213 8.90561 13.0245C9.44877 13.7374 9.75897 14.5512 9.94406 15.4192C10.0768 16.0544 10.1649 16.698 10.2077 17.3455C10.2491 17.9365 10.2894 18.5275 10.3181 19.1198C10.3487 19.7447 10.3653 20.3702 10.3883 20.9957H8.60117C8.51436 20.9912 8.42692 20.9842 8.34012 20.9829C7.04509 20.9663 5.75071 20.937 4.46781 20.7321C3.83785 20.6312 3.22065 20.4812 2.63664 20.2183C2.13178 19.9949 1.685 19.7019 1.33268 19.273C0.919092 18.7662 0.669533 18.1784 0.49465 17.5561C0.217008 16.5694 0.119354 15.5532 0.0702085 14.5378C0.0370191 13.858 0.0293599 13.1777 0.0102121 12.4954C0.00957386 12.4654 0.00319129 12.4328 0 12.4009Z" fill="#171717"/>
<path d="M10.6203 0.00141835C10.9834 0.00141835 11.3358 -0.00177294 11.6881 0.00141835C12.4176 0.00971571 13.1478 0.0148217 13.8773 0.035246C14.8092 0.0614145 15.7385 0.120134 16.6588 0.280337C17.2877 0.380416 17.9004 0.563492 18.4811 0.824771C19.3485 1.22879 19.9299 1.89194 20.2803 2.77337C20.5082 3.3648 20.6671 3.98053 20.7539 4.60837C20.9313 5.78404 20.9703 6.96992 20.9856 8.15517C20.9945 8.86044 20.9952 9.56572 20.9996 10.271V10.3738C20.9785 10.377 20.9572 10.3789 20.9358 10.3795C20.2946 10.354 19.6531 10.328 19.0115 10.3016C18.6508 10.2863 18.2909 10.2723 17.9309 10.2474C17.5709 10.2225 17.2192 10.1867 16.8631 10.1542C16.3071 10.1045 15.7553 10.0156 15.2119 9.88804C14.1403 9.63273 13.1861 9.16489 12.4246 8.35111C11.8387 7.72562 11.4513 6.98779 11.2119 6.16827C11.0627 5.65884 10.9585 5.1373 10.9005 4.60964C10.8418 4.07542 10.7894 3.54056 10.7524 3.00506C10.7128 2.43063 10.6937 1.8562 10.6688 1.28623C10.6509 0.893703 10.6375 0.499898 10.6228 0.106731C10.6165 0.0754564 10.6203 0.0435434 10.6203 0.00141835Z" fill="#171717"/>
</svg>

<svg width="21" height="21" fill="none" xmlns="http://www.w3.org/2000/svg"><path d="M12.402 20.997h-1.787c.027-.686.05-1.371.083-2.056.022-.505.042-1.01.088-1.513.049-.534.115-1.068.196-1.599.079-.54.22-1.067.424-1.573.568-1.4 1.563-2.366 2.975-2.9.825-.31 1.689-.44 2.56-.527a29.24 29.24 0 011.103-.087c.502-.03 1.003-.056 1.506-.077.41-.018.82-.026 1.229-.04.07 0 .14-.008.219-.012v.106c-.005.705-.005 1.41-.014 2.116-.016 1.225-.056 2.448-.25 3.661a7.469 7.469 0 01-.506 1.842c-.267.61-.638 1.137-1.2 1.515a4.973 4.973 0 01-1.387.634c-.814.24-1.65.353-2.494.404-.772.047-1.546.064-2.319.09l-.426.016zM0 10.383V8.596c.004-.114.012-.228.014-.343.017-1.22.052-2.438.234-3.646a8.29 8.29 0 01.474-1.835c.368-.927.994-1.596 1.915-1.998.644-.28 1.32-.437 2.01-.54C5.457.118 6.272.053 7.09.039 8.161.016 9.232.014 10.304.002h.078v.12c-.026.658-.05 1.316-.08 1.974-.018.423-.033.847-.07 1.268a37.52 37.52 0 01-.176 1.577 7.662 7.662 0 01-.393 1.622C9.285 7.6 8.66 8.445 7.741 9.067c-.635.43-1.34.689-2.082.854-.655.143-1.32.237-1.99.28a77.97 77.97 0 01-1.774.111c-.633.032-1.264.048-1.895.071zM0 12.4v-1.786c.434.016.869.031 1.303.05.466.02.933.032 1.4.063.633.046 1.267.101 1.899.166.55.057 1.094.167 1.623.328 1.077.326 1.988.9 2.68 1.803.544.713.854 1.527 1.04 2.395.132.635.22 1.279.263 1.927.041.59.081 1.181.11 1.774.03.625.047 1.25.07 1.876H8.601c-.087-.005-.174-.012-.26-.013-1.296-.017-2.59-.046-3.873-.25-.63-.102-1.247-.252-1.831-.515-.505-.223-.952-.516-1.304-.945-.414-.507-.663-1.095-.838-1.717-.278-.987-.376-2.003-.425-3.018-.033-.68-.04-1.36-.06-2.043 0-.03-.007-.062-.01-.094zM10.62.001c.363 0 .716-.003 1.068 0 .73.009 1.46.014 2.19.034.931.026 1.86.085 2.78.245.63.1 1.242.283 1.823.545.867.404 1.449 1.067 1.8 1.948.227.592.386 1.208.473 1.835.177 1.176.216 2.362.232 3.547.008.705.01 1.41.014 2.116v.103a.523.523 0 01-.064.005l-1.924-.077c-.361-.016-.721-.03-1.081-.055-.36-.024-.712-.06-1.068-.093a11.837 11.837 0 01-1.651-.266c-1.072-.255-2.026-.723-2.787-1.537-.586-.625-.974-1.363-1.213-2.183A9.072 9.072 0 0110.9 4.61a39.843 39.843 0 01-.148-1.605c-.04-.574-.058-1.149-.083-1.719-.018-.392-.032-.786-.046-1.18-.006-.03-.003-.062-.003-.105z" fill="#171717"/></svg>
